remix/Business/cloud-off-fill.svg

<svg viewBox="0 0 24 24" fill="currentColor" xmlns="http://www.w3.org/2000/svg"><path d="M3.51472 2.10051L22.6066 21.1924L21.1924 22.6066L19.1782 20.5924C18.503 20.8556 17.7684 21 17 21H7C3.68629 21 1 18.3137 1 15C1 12.3846 2.67346 10.16 5.00804 9.33857C5.0027 9.22639 5 9.11351 5 9C5 8.22228 5.12683 7.47418 5.36094 6.77527L2.10051 3.51472L3.51472 2.10051ZM17 9C17.6983 9 18.3687 9.11928 18.992 9.33857C21.3265 10.16 23 12.3846 23 15C23 16.0883 22.7103 17.1089 22.2037 17.9889L14.0109 9.79638C14.891 9.28977 15.9117 9 17 9ZM12 2C15.242 2 17.9693 4.20399 18.7652 7.19539C18.1973 7.0675 17.6065 7 17 7C15.357 7 13.8297 7.49529 12.5592 8.34471L7.69418 3.48056C8.88169 2.55284 10.3763 2 12 2Z"/></svg>

<svg viewBox="0 0 24 24" xmlns="http://www.w3.org/2000/svg"><path fill="none" d="M0 0h24v24H0Z"/><path d="M3.51 2.1L22.6 21.192l-1.42 1.41 -2.02-2.02v0c-.7.27-1.44.4-2.18.4h-10 0c-3.32 0-6.01-2.69-6.01-6 -.01-2.55 1.6-4.83 4.01-5.67h0c-.05-.87.07-1.74.35-2.57L2.06 3.47l1.41-1.42ZM16.99 9v0c3.31 0 6 2.69 5.99 6 -.01 1.04-.28 2.07-.8 2.98l-8.194-8.2c.88-.51 1.9-.8 2.99-.8Zm-5-7v-.001c3.17 0 5.94 2.13 6.76 5.195v0c-2.14-.49-4.39-.07-6.21 1.15L7.67 3.47v0c1.22-.97 2.74-1.49 4.3-1.48Z"/></svg>
